icons/linear-ele-office-book-reading.svg

<svg xmlns="http://www.w3.org/2000/svg" width="32px" height="32px" viewBox="0 0 32 32" version="1.1">
    <title>linear-ele-office-book-reading</title>
    <g id="linear-ele-office-book-reading" stroke-width="1" fill-rule="evenodd">
        <path d="M30,4 L30,26 C30,26.4935711 29.6398889,26.9133207 29.1520572,26.9883717 L16.1520572,28.9883717 C16.0512786,29.0038761 15.9487214,29.0038761 15.8479428,28.9883717 L2.84794282,26.9883717 C2.36011113,26.9133207 2,26.4935711 2,26 L2,4 C2,3.38711462 2.54629862,2.91843468 3.15205718,3.0116283 L16,4.988 L28.8479428,3.0116283 C29.4537014,2.91843468 30,3.38711462 30,4 Z M4,5.165 L4,25.141 L15,26.8337854 L15,6.85778535 L4,5.165 Z M28,5.165 L17,6.85778535 L17,26.8337854 L28,25.141 L28,5.165 Z" id="&#24418;&#29366;" fill-rule="nonzero" />
    </g>
</svg>

<svg xmlns="http://www.w3.org/2000/svg" viewBox="0 0 32 32"><path fill="currentColor" d="M30 4v22a1 1 0 0 1-.848.988l-13 2a1 1 0 0 1-.304 0l-13-2A1 1 0 0 1 2 26V4a1 1 0 0 1 1.152-.988L16 4.988l12.848-1.976A1 1 0 0 1 30 4M4 5.165v19.976l11 1.693V6.858zm24 0L17 6.858v19.976l11-1.693z"/></svg>
